icons/desktop-download-24.svg

<svg xmlns="http://www.w3.org/2000/svg" width="24" height="24" viewBox="0 0 24 24"><path d="M11.25 9.331V.75a.75.75 0 011.5 0v8.58l1.949-2.11A.75.75 0 1115.8 8.237l-3.25 3.52a.75.75 0 01-1.102 0l-3.25-3.52A.75.75 0 119.3 7.22l1.949 2.111z"/><path d="M2.5 3.75v11.5c0 .138.112.25.25.25h18.5a.25.25 0 00.25-.25V3.75a.25.25 0 00-.25-.25h-5.5a.75.75 0 010-1.5h5.5c.966 0 1.75.784 1.75 1.75v11.5A1.75 1.75 0 0121.25 17h-6.204c.171 1.375.805 2.652 1.769 3.757A.752.752 0 0116.25 22h-8.5a.75.75 0 01-.566-1.243c.965-1.105 1.599-2.382 1.77-3.757H2.75A1.75 1.75 0 011 15.25V3.75C1 2.784 1.784 2 2.75 2h5.5a.75.75 0 010 1.5h-5.5a.25.25 0 00-.25.25zM10.463 17c-.126 1.266-.564 2.445-1.223 3.5h5.52c-.66-1.055-1.098-2.234-1.223-3.5z"/></svg>

<svg xmlns="http://www.w3.org/2000/svg" width="24" height="24" viewBox="0 0 24 24">
  <defs/>
  <path d="M11.25,9.331 L11.25,0.75 A0.75 0.75 0 0 1 12.75,0.75 L12.75,9.33 L14.699,7.22 A0.75 0.75 0 1 1 15.8,8.237 L12.55,11.757 A0.75 0.75 0 0 1 11.448,11.757 L8.198,8.237 A0.75 0.75 0 1 1 9.3,7.22 L11.249,9.331 Z"/>
  <path d="M2.5,3.75 L2.5,15.25 C2.5,15.388 2.612,15.5 2.75,15.5 L21.25,15.5 C21.388,15.5 21.5,15.388 21.5,15.25 L21.5,3.75 C21.5,3.612 21.388,3.5 21.25,3.5 L15.75,3.5 C15.336,3.5 15,3.164 15,2.75 C15,2.336 15.336,2 15.75,2 L21.25,2 C22.216,2 23,2.784 23,3.75 L23,15.25 C23,16.216 22.216,17 21.25,17 L15.046,17 C15.217,18.375 15.851,19.652 16.815,20.757 C17.008,20.979 17.054,21.293 16.933,21.56 C16.811,21.828 16.544,22 16.25,22 L7.75,22 C7.456,22 7.189,21.829 7.067,21.561 C6.945,21.293 6.991,20.979 7.184,20.757 C8.149,19.652 8.783,18.375 8.954,17 L2.75,17 C1.784,17 1,16.216 1,15.25 L1,3.75 C1,2.784 1.784,2 2.75,2 L8.25,2 C8.664,2 9,2.336 9,2.75 C9,3.164 8.664,3.5 8.25,3.5 L2.75,3.5 C2.612,3.5 2.5,3.612 2.5,3.75 Z M10.463,17 C10.337,18.266 9.899,19.445 9.24,20.5 L14.76,20.5 C14.1,19.445 13.662,18.266 13.537,17 Z"/>
</svg>
